!!!COM:	L van Beethoven
!!!OTL:	String Quartet
**kern	**dynam
*I"Violin I	*
*clefG2	*
*k[b-e-a-]	*
*E-:	*
*M4/4	*
=1	=1
!LO:TX:t=sotto voce	!
!LO:TX:a:B:t=Poco Adagio	!
(2ee-	.
4.g	.
8a-)	.
=2	=2
4dd-	.
4r	.
2r	.
=3	=3
(2ee-	.
4.g	.
8a-)	.
=4	=4
[1dd-	.
=5	=5
2.dd-	.
[4dd	.
=6	=6
2dd	.
(4ee-	.
8cc	.
8ff	.
=7	=7
4ee-	.
4dd	.
4cc	.
4b-)	.
=8	=8
(4b-	.
8a-)	.
8r	.
(4a-	.
8g)	.
8r	.
=9	=9
[4g	.
(16gLL	.
16f	.
16e	.
16f	.
16eLL	.
16f	.
16g	.
16f	.
!LO:TX:t=cresc.	!
16eeLL	<
16ff	.
16gg	.
16ff)	.
=10	=10
(4aa-	.
4c-	.
4B-	.
8.b-L	.
32a-	.
32g)	[
=11	=11
4f	p
4r	.
8r	.
!LO:TX:t=espress.	!
(8f	.
8g	.
8a-	.
=12	=12
4g	.
4f)	.
8r	.
(8g	.
8a-	.
8b-	.
=13	=13
4a-	.
4g)	.
8GL 8e- 8dd-	f
8r	.
4r	.
=14	=14
4r	.
([4cc	p
16ccLL	.
16ccc	.
16bb-	.
16aa-	.
16ggLL	.
16bb-	.
16aa-	.
16ff)	.
=15	=15
[1e- [1ee-	.
=16	=16
[1e- [1ee-	.
=17	=17
2e- 2ee-	.
8gL 8ee- 8ddd-	f
8r	.
4r	.
=18	=18
(2cc-	p
4.d	.
8e-)	.
=19	=19
(4.e-	.
8f-)	.
(4.f-	.
8f)	.
=20	=20
(4.f	.
8g-)	.
(4.g-	.
8g)	.
=21	=21
(4.g	.
8a-)	.
(4.a-	.
8a)	.
=22	=22
(4.a	.
8b-)	.
(4.b-	.
8cc-)	.
=23	=23
(4.cc-	.
8cc)	.
[2dd-	.
=24	=24
!LO:TX:t=cresc.	!
(4.dd-	<
8dd)	.
(4.dd	.
8ee-)	.
=25||	=25||
!LO:TX:a:B:t=Allegro	!
4G 4e- 4ee-	f
4r	.
4e-	.
4g	.
=26	=26
4b-	.
4r	.
2r	.
=27	=27
2r	.
[2bb-	p
=28	=28
(4bb-	.
8gg	.
8aa-	.
4bb-	.
4dd-)	.
=29	=29
2cc	.
4.aa-	.
8gg	.
=30	=30
4.ff	.
8ccc	.
4.bb-	.
8aa-	.
=31	=31
(4ff#	.
4gg)	.
2r	.
=32	=32
4r	.
!LO:TX:t=cresc.	!
(2gg	<
8aa-	.
8bb-)	.
=33	=33
[1ccc	.
=34	=34
2ccc	.
2ddd	.
=35	=35
8eee-L	p
8bb-	.
8bb-	.
8bb-	.
8bb-L	.
8bb-	.
8bb-	.
8bb-	.
=36	=36
8bb-L	.
8bb-	.
8bb-	.
8bb-	.
8ccL 8aa-	.
8cc 8aa-	.
8cc 8aa-	.
8cc 8aa-	.
=37	=37
8ccL 8gg	.
8cc 8gg	.
8cc 8gg	.
8cc 8gg	.
8ccL 8ff	.
8cc 8ff	.
8cc 8ff	.
8cc 8ff	.
=38	=38
8b-L 8gg	.
8b- 8gg	.
8b- 8gg	.
8b- 8gg	.
8b-L 8aa-	.
8b- 8aa-	.
8b- 8aa-	.
8b- 8aa-	.
=39	=39
4b- 4gg	.
4r	.
!LO:TX:t=pizz.	!
4ee-	.
4gg	.
=40	=40
2r	.
4ff	.
4aa-	.
=41	=41
2r	.
4aa-	.
4ccc	.
=42	=42
4eee-	.
4r	.
4bb-	.
4r	.
=43	=43
!LO:TX:t=arco	!
4ff 4fff	f
4r	.
2r	.
=44	=44
(2cc	p
2dd-)	.
=45	=45
4ff 4fff	f
4r	.
2r	.
=46	=46
(1cc	p
=47	=47
1dd-)	.
=48	=48
[2gg	sf
(8ggL	.
8ff)	[
8cc	p
8dd	.
=49	=49
8ee-L	.
8g	.
8a	.
8f	.
8b-L	.
8f	.
8cc	.
8f	.
=50	=50
4dd	.
4r	.
4r	.
8r	.
!LO:TX:t=cresc.	!
[8gg	<
=51	=51
8ggL	.
4ff	.
8ccc	.
8ffL	.
8ddd	.
8ff	.
8eee-	[
=52	=52
8dddL	p
8ff	.
8ff	.
8ff	.
4ff	.
4r	.
=53	=53
8r	.
8bb-	.
8bb-	.
8bb-	.
4bb-	.
4r	.
=54	=54
2r	.
[2bb-	.
=55	=55
(16bb-LL	.
16aa	.
16gg	.
16ff	.
16ggLL	.
16aa	.
16bb-	.
16ccc	.
16dddLL	.
16ccc	.
16bb-	.
16aa	.
16bb-LL	.
16ccc	.
16ddd	.
16eee-)	.
=56	=56
!LO:TX:t=cresc.	!
(4fff	<
4ggg	[
4aaa	.
4bbb-)	.
=57	=57
(4bbb-	.
2b-)	.
(12cc	.
12dd	.
12ee-)	.
=58	=58
(2.ff	p
4aa-	.
=59	=59
4gg	.
4ddd	.
4dd	.
4gg)	.
=60	=60
(4ff	.
2ee-	.
4gg	.
=61	=61
4ff	.
4ccc	.
4cc	.
4ff)	.
=62	=62
!LO:TX:t=cresc.	!
(4ee-	<
2dd)	.
4dd 4ddd	.
=63	=63
[1dd [1ddd	.
=64	=64
(8ddL 8ddd	.
8ccc)	.
(8ddd	.
8eee-)	.
(4gg	.
4aa)	.
=65	=65
2bb-	.
4.ccc	[
8f	.
=66	=66
(16B-LL	p
16c	.
16B-	.
16c	.
!LO:TX:t=cresc.	!
16dLL	<
16e-	.
16d	.
16e-	.
16fLL	.
16g	.
16f	.
16g	.
8a-L)	.
8a-	.
=67	=67
2a	.
2b	.
=68	=68
4cc	.
4ee-	.
4r	.
4ccc	.
=69	=69
4r	.
4ddd	.
4r	.
4fff	.
=70	=70
[2dd	f
8ddL	.
8ff	sf
8dd	.
8dd	.
=71	=71
8ddL	.
8ff	sf
8dd	.
8dd	.
8ddL	.
8ee-	sf
8cc	.
8cc	.
=72	=72
(8ccL	.
8dd)	.
4dd	.
8r	.
!LO:TX:t=dim.	!
8e-	.
8c	.
8c	.
=73	=73
(8cL	p
8d)	.
4d	.
8r	.
8e-	.
8c	.
8d	.
=74	=74
4d	.
4r	.
4d	.
4r	.
=75	=75
(4d	.
4d	.
4d	.
4d)	.
=76	=76
1d	pp
=77	=77
1d	.
=78:|!	=78:|!
4G 4d 4b 4gg	f
4r	.
4g	.
4b	.
=79	=79
4dd	.
4r	.
2r	.
=80	=80
1r	.
=81	=81
2r	.
[2gg	p
=82	=82
(4gg	.
8ee-	.
8ff	.
4gg	.
4cc)	.
=83	=83
1r	.
=84	=84
2r	.
(4bb-	p
8gg	.
8aa-	.
=85	=85
4bb-	.
4dd-)	.
(4bb-	.
8gg	.
8aa-	.
=86	=86
4bb-)	.
4r	.
4r	.
(8g	.
8a-)	.
=87	=87
4b-	.
4r	.
4r	.
(8gg	.
8aa-)	.
=88	=88
!LO:TX:t=cresc.	!
4bb-	<
(8gg	.
8aa-)	.
4bb-	.
(8gg	.
8aa-)	.
=89	=89
4bb-	.
8gg	.
8aa	.
8bb-L	.
8ee	.
8ff	.
8gg	.
=90	=90
8aaL	.
8bb	.
8ccc	.
8ddd	.
8eeeL	.
8fff	.
8gg	.
8aa	.
=91	=91
8bbL	.
8ccc	.
8ddd	.
8eee	.
8fffL	.
8ggg	.
8aaa	.
8bbb	.
=92	=92
4cccc	[
4r	.
[2gg	ff
=93	=93
(4gg	.
8ee	sf
8ff	.
4gg	.
4b-)	sf
=94	=94
2a	.
4.ff	sf
8ee	.
=95	=95
4.dd	sf
8aa	.
4.gg	sf
8bb	.
=96	=96
!LO:TX:t=sempre	!
[1ccc	.
=97	=97
4.ccc	f
16cc	.
16b	.
12aL	.
12g	.
12f	.
12eL	.
12d	.
12c	.
=98	=98
4.B	.
8ee	.
4.ff	.
8dd	.
=99	=99
4.b	.
8ddd	.
4.ff	.
8gg	.
=100	=100
4ee	.
8r	.
8c	.
4.B	.
8A	.
=101	=101
4.G	.
8e	.
4.f	.
8d	.
=102	=102
[1g	.
=103	=103
4.g	.
8g	.
4.a	.
8b	.
=104	=104
4cc	.
8r	.
8ddd	.
4.ff	.
8gg	.
=105	=105
4.ee	.
8g	.
4.a	.
8b	.
=106	=106
4cc	.
8r	.
8ddd	.
4.ff	.
8gg	.
=107	=107
4.ee	.
8cc	.
4.ff	.
8aa	.
=108	=108
4.ccc	.
8ee	.
4.gg	.
8b	.
=109	=109
4.cc	.
8c	.
2r	.
=110	=110
4.ee	.
8e	.
2r	.
=111	=111
4.gg	.
8g	.
2r	.
=112	=112
!LO:TX:t=dim.	!
4.ccc	.
8cc	.
2r	.
=113	=113
4.cc	.
8c	.
2r	.
=114	=114
4.cc-	.
8c-	.
2r	.
=115	=115
4.b-	p
8B-	.
2r	.
=116	=116
4.b-	.
8B-	.
2r	.
=117	=117
4.b-	.
8B-	.
2r	.
=118	=118
4.b-	.
8B-	.
2r	.
=119	=119
4.b-	p
8f	.
2r	.
=120	=120
4.g-	.
8e-	.
2r	.
=121	=121
4.d	.
8B-	.
2r	.
=122	=122
4.e-	.
8A	.
2r	.
=123	=123
4.d	pp
8B-	.
2r	.
=124	=124
4.d	.
8B-	.
2r	.
=125	=125
[1B- [1d	.
=126	=126
[1B- [1d	.
=127	=127
[1B- [1d	.
=128	=128
1B- 1d	.
=129	=129
[1A- [1d	.
=130	=130
[1A- [1d	.
=131	=131
1A- 1d	.
=132	=132
[1A- [1f	.
=133	=133
[1A- [1f	.
=134	=134
1A- 1f	.
=135	=135
[1f [1a-	.
=136	=136
!LO:TX:t=cresc.	!
[1f [1a-	<
=137	=137
2f 2a-	.
12dL	.
12f	.
12a-	.
12b-L	.
12dd	.
12ff	.
=138	=138
12a-L	.
12b-	.
12dd	.
12ffL	.
12aa-	.
12bb-	.
12dddL	.
12fff	.
12aaa-	.
8aaa-L	.
8d	[
=139	=139
4G 4e- 4ee-	f
4r	.
4e-	.
4g	.
=140	=140
4b-	.
4r	.
2r	.
=141	=141
2r	.
[2bb-	p
=142	=142
4bb-	.
8gg	.
8aa-	.
4bb-	.
4dd-	.
=143	=143
2cc	.
4.aa-	.
8gg	.
=144	=144
4.ff	.
8ccc	.
4.bb-	.
8aa-	.
=145	=145
4ff#	.
4gg	.
2r	.
=146	=146
!LO:TX:t=cresc.	!
8ggL	<
8ff#	.
8gg	.
8bb-	.
8ee-L	.
8gg	.
8aa-	.
8bb-	.
=147	=147
[1ccc	.
=148	=148
2ccc	.
2ddd	.
=149	=149
2eee-	.
2fff	.
=150	=150
2ggg	.
2aaa-	.
=151	=151
4.bbb-	p
8ee-	.
(8ddL	.
8cc)	.
8b-	.
8a-	.
=152	=152
!LO:TX:t=cresc.	!
4.g	.
8gg	.
(8ffL	.
8ee-)	.
8dd	.
8cc	.
=153	=153
8b-L	p
8dd- 8bb-	.
8dd- 8bb-	.
8dd- 8bb-	.
8dd-L 8bb-	.
8dd- 8bb-	.
8dd- 8bb-	.
8dd- 8bb-	.
=154	=154
8ccL 8bb-	.
8cc 8bb-	.
8cc 8bb-	.
8cc 8bb-	.
8ccL 8aa-	.
8cc 8aa-	.
8cc 8aa-	.
8cc 8aa-	.
=155	=155
8b-L 8aa-	.
8b- 8aa-	.
8b- 8aa-	.
8b- 8aa-	.
8b-L 8gg	.
8b- 8gg	.
8cc 8ff	.
8cc 8ff	.
=156	=156
8b-L 8gg	.
8b- 8bb-	.
8b- 8bb-	.
8b- 8bb-	.
8b-L 8bb-	.
8b- 8bb-	.
8b- 8bb-	.
8b- 8bb-	.
=157	=157
2r	.
!LO:TX:t=pizz.	!
4ff	.
4bb-	.
=158	=158
2r	.
4gg	.
4bb	.
=159	=159
2r	.
4aa	.
4ccc	.
=160	=160
4ddd	.
4r	.
4ddd	.
4r	.
=161	=161
!LO:TX:t=arco	!
8ddL 8bb-	.
8dd 8bb-	.
8dd 8bb-	.
8dd 8bb-	.
8ddL 8bb-	.
8dd 8bb-	.
8dd 8bb-	.
8dd 8bb-	.
=162	=162
8ddL 8aa	.
8dd 8aa	.
8dd 8aa	.
8dd 8gg	.
8ddL 8gg	.
8dd 8gg	.
8dd 8gg	.
8dd 8gg	.
=163	=163
8ccL 8gg	.
8cc 8gg	.
8cc 8gg	.
8cc 8gg	.
8ccL 8aa-	.
8cc 8aa-	.
8cc 8ff	.
8cc 8ff	.
=164	=164
8ccL 8gg	.
8cc 8gg	.
8cc 8gg	.
8cc 8gg	.
8bL 8gg	.
8b 8gg	.
8b 8gg	.
8b 8gg	.
=165	=165
2r	.
!LO:TX:t=pizz.	!
4dd-	.
4ff	.
=166	=166
2r	.
4cc	.
4ee	.
=167	=167
4ff	.
4aa-	.
4bb-	.
4ddd	.
=168	=168
4eee-	.
4r	.
4fff	.
4r	.
=169	=169
!LO:TX:t=arco	!
4b- 4bb-	f
4r	.
2r	.
=170	=170
(2ff	p
2gg-)	.
=171	=171
4b- 4bb-	f
4r	.
2r	.
=172	=172
!LO:TX:t=p cresc.	!
(1f	<
=173	=173
1g-)	.
=174	=174
[2cc	sf
(8ccL	[
8b-)	.
8f	p
8g	.
=175	=175
8a-L	.
8c	.
8d	.
8B-	.
8e-L	.
8B-	.
8f	.
8B-	.
=176	=176
8gL	.
8r	.
4r	.
8r	.
!LO:TX:t=cresc.	!
(4dd	<
8ee)	.
=177	=177
8ffL	.
8gg	.
8aa-	.
8bb-	.
8bb-L	.
8bb-	.
8bb-	.
8bb-	.
=178	=178
8bb-L	p
8gg	.
8gg	.
8gg	.
4gg	.
4r	.
=179	=179
8r	.
8gg	.
8gg	.
8gg	.
4gg	.
4r	.
=180	=180
2r	.
[2ee-	.
=181	=181
(16ee-LL	.
16dd	.
16cc	.
16b-	.
16ccLL	.
16dd	.
16ee-	.
16ff)	.
(16ggLL	.
16ff	.
16ee-	.
16dd	.
16ee-LL	.
16ff	.
16gg)	.
16aa-	.
=182	=182
!LO:TX:t=cresc.	!
4bb-	<
4ccc	.
4ddd	.
4eee-	.
=183	=183
(4eee-	.
2e-)	.
(12f	.
12g	.
12a-)	.
=184	=184
(2.b-	p
4dd-	.
=185	=185
4cc	.
4gg	.
4g	.
4cc	.
=186	=186
4b-	.
2a-)	.
(4ccc	.
=187	=187
4bb-	.
4fff	.
4ff	.
4bb-)	.
=188	=188
!LO:TX:t=cresc.	!
(4aa-	<
2g) 2gg	.
4g 4gg	.
=189	=189
1g [1gg	.
=190	=190
(8ggL	.
8ff)	.
(8gg	.
8aa-)	.
(4cc	.
4dd)	.
=191	=191
2ee-	.
4.ff	.
8b-	.
=192	=192
(16e-LL	p
16f	.
16e-	.
16f	.
!LO:TX:t=cresc.	!
16gLL	<
16a-	.
16g	.
16a-	.
16b-LL	.
16cc	.
16b-	.
16cc	.
8dd-L)	.
8dd-	.
=193	=193
(2dd	.
2ee)	.
=194	=194
4ff	.
4aa-	.
4r	.
4aa-	.
=195	=195
4r	.
4bb-	.
4r	.
4bb-	.
=196	=196
[2gg	f
8ggL	.
8bb-	sf
8gg	.
8gg	.
=197	=197
8ggL	.
8bb-	sf
8gg	.
8gg	.
8ggL	.
8aa-	sf
8ff	.
8ff	.
=198	=198
(8ffL	.
8gg)	.
4gg	.
8r	.
!LO:TX:t=dim.	!
8a-	.
8f	.
8f	.
=199	=199
(8fL	.
8g)	.
4g	.
8r	.
8a-	.
8f	.
8g	.
=200	=200
4g	.
4r	.
4g	.
4r	.
=201	=201
(4g	.
4g	.
4g	.
4g)	.
=202	=202
1g	pp
=203	=203
1g	.
=204	=204
4g	ppp
4r	.
8r	.
8b-	.
8g	.
8g	.
=205	=205
4g	.
4r	.
8r	.
8g	.
8e-	.
8e-	.
=206	=206
4e-	.
4r	.
8r	.
8e-	.
8d	.
8d	.
=207	=207
4d	.
4r	.
4d	.
4r	.
=208	=208
(4d	.
4d	.
4d	.
4d)	.
=209	=209
1d	.
=210	=210
1d	.
=211	=211
1d	.
=212	=212
(2d	.
2e-)	.
=213	=213
1f	.
=214	=214
(2f	.
2g)	.
=215	=215
!LO:TX:t=poco cresc.	!
(4a-	<
8f	.
8g	.
4a-	.
4d)	.
=216	=216
(4a-	.
8f	.
8g	.
4a-	.
4B)	.
=217	=217
(4a-	.
8f	.
8g	.
4a-	.
4B-)	.
=218	=218
!LO:TX:t=più cresc.	!
(4g	.
8e-	.
8f	.
4g	.
4B-)	.
=219	=219
(4f	.
8d	.
8e-	.
4f	.
4A-)	.
=220	=220
(4e-	.
8B-	.
8d	.
4e-	.
8g	.
8e-)	[
=221	=221
(16A-LL	f
16c)	.
16e-	.
16g-	.
16aLL	.
16g-	.
16e-	.
16c	.
(16ALL	.
16c)	.
16e-	.
16g-	.
16aLL	.
16g-	.
16e-	.
16c	.
=222	=222
(16ALL	.
16c)	.
16e-	.
16g-	.
16aLL	.
16g-	.
16e-	.
16c	.
(16ALL	.
16c)	.
16e-	.
16g-	.
16aLL	.
16g-	.
16e-	.
16c	.
=223	=223
(16ALL	.
16c)	.
16e-	.
16g-	.
16aLL	.
16g-	.
16e-	.
16c	.
(16ALL	.
16c)	.
16e-	.
16g-	.
16aLL	.
16g-	.
16e-	.
16c	.
=224	=224
(16ALL	.
16c)	.
16e-	.
16g-	.
16aLL	.
16g-	.
16e-	.
16c	.
(16ALL	.
16c)	.
16e-	.
16g-	.
16aLL	.
16g-	.
16e-	.
16c	.
=225	=225
(16dLL	.
16f)	.
16a-	.
16cc-	.
16ddLL	.
16cc-	.
16a-	.
16f	.
16fLL	.
16a-	.
16cc-	.
16dd	.
16ffLL	.
16dd	.
16cc-	.
16a-	.
=226	=226
16dLL	.
16a-	.
16cc-	.
16dd	.
16ffLL	.
16dd	.
16cc-	.
16a-	.
16dLL	.
16cc-	.
16aa-	.
16cc-	.
16aa-LL	.
16cc-	.
16d	.
16cc-	.
=227	=227
16dLL	.
16cc-	.
16aa-	.
16cc-	.
16aa-LL	.
16cc-	.
16d	.
16cc-	.
16dLL	.
16cc-	.
16aa-	.
16cc-	.
16aa-LL	.
16cc-	.
16d	.
16cc-	.
=228	=228
16dLL	.
16cc-	.
16aa-	.
16cc-	.
16aa-LL	.
16cc-	.
16d	.
16cc-	.
16dLL	.
16cc-	.
16aa-	.
16cc-	.
16aa-LL	.
16cc-	.
16d	.
16cc-	.
=229	=229
16eLL	.
16dd-	.
16bb-	.
16dd-	.
16bb-LL	.
16dd-	.
16e	.
16dd-	.
16eLL	.
16dd-	.
16bb-	.
16dd-	.
16bb-LL	.
16dd-	.
16e	.
16dd-	.
=230	=230
16eLL	.
16dd-	.
16bb-	.
16dd-	.
16bb-LL	.
16dd-	.
16e	.
16dd-	.
16eLL	.
16dd-	.
16bb-	.
16dd-	.
16bb-LL	.
16dd-	.
16e	.
16dd-	.
=231	=231
16eLL	.
16dd-	.
16bb-	.
16dd-	.
16bb-LL	.
16dd-	.
16e	.
16dd-	.
16eLL	.
16dd-	.
16bb-	.
16dd-	.
16bb-LL	.
16dd-	.
16e	.
16dd-	.
=232	=232
16eLL	.
16dd-	.
16bb-	.
16dd-	.
16bb-LL	.
16dd-	.
16e	.
16dd-	.
16eLL	.
16cc	.
16bb-	.
16cc	.
16ggLL	.
16cc	.
16e	.
16cc	.
=233	=233
16fLL	.
16cc	.
16gg	.
16cc	.
16ffLL	.
16cc	.
16f	.
16cc	.
16fLL	.
16cc	.
16ff	.
16cc	.
16aa-LL	.
16cc	.
16f	.
16cc	.
=234	=234
16fLL	.
16dd	.
16aa-	.
16dd	.
16aa-LL	.
16dd	.
16f	.
16dd	.
16gLL	.
16dd	.
16gg	.
16dd	.
16ggLL	.
16dd	.
16b-	.
16dd	.
=235	=235
16gLL	.
16dd	.
16bb-	.
16dd	.
16bb-LL	.
16dd	.
16g	.
16dd	.
16gLL	.
16dd	.
16bb-	.
16dd	.
16bb-LL	.
16dd	.
16b-	.
16dd	.
=236	=236
16b-LL	.
16ee-	.
16gg	.
16ee-	.
16ggLL	.
16ee-	.
16b-	.
16ee-	.
16ccLL	.
16ee-	.
16aa-	.
16ee-	.
16aa-LL	.
16ee-	.
16cc	.
16ee-	.
=237	=237
16ccLL	.
16ee-	.
16aa-	.
16ee-	.
16aa-LL	.
16ee-	.
16cc	.
16ee-	.
16a-LL	.
16cc	.
16ee-	.
16cc	.
16ee-LL	.
16cc	.
16a-	.
16cc	.
=238	=238
16a-LL	.
16b-	.
16ff	.
16b-	.
16ffLL	.
16b-	.
16a-	.
16b-	.
16fLL	.
16a-	.
16b-	.
16a-	.
16b-LL	.
16a-	.
16f	.
16a-	.
=239	=239
16B-LL	.
16f	.
16a-	.
16f	.
16a-LL	.
16f	.
16B-	.
16f	.
16A-LL	.
16c	.
16f	.
16B-	.
16fLL	.
16B-	.
16A-	.
16B-	.
=240	=240
16GLL	f
16B-	.
16e-	.
16g	.
16B-LL	.
16e-	.
16g	.
16b-	.
16gLL	.
16b-	.
16ee-	.
16gg	.
16ccLL	.
16ff	.
16aa-	.
16ccc	.
=241	=241
16dLL	.
16bb-	.
16aa-	.
16ff	.
16aa-LL	.
16ff	.
16dd	.
16b-	.
16a-LL	.
16f	.
16d	.
16A-	.
16fLL	.
16d	.
16B-	.
16A-	.
=242	=242
!LO:TX:t=più f	!
16GLL	.
16B-	.
16e-	.
16g	.
16B-LL	.
16e-	.
16g	.
16b-	.
16gLL	.
16b-	.
16ee-	.
16gg	.
16ccLL	.
16ff	.
16aa-	.
16ccc	.
=243	=243
16dLL	.
16bb-	.
16aa-	.
16ff	.
16aa-LL	.
16ff	.
16dd	.
16b-	.
16a-LL	.
16f	.
16d	.
16A-	.
16fLL	.
16d	.
16B-	.
16A-	.
=244	=244
16GLL	ff
16B-	.
16e-	.
16g	.
16B-LL	.
16e-	.
16g	.
16b-	.
16gLL	.
16b-	.
16ee-	.
16gg	.
16ccLL	.
16ee-	.
16aa-	.
16ccc	.
=245	=245
16GLL	.
16B-	.
16e-	.
16g	.
16b-LL	.
16ee-	.
16gg	.
16bb-	.
16aa-LL	.
16gg	.
16ff	.
16gg	.
16aa-LL	.
16bb-	.
16ccc	.
16ddd	.
=246	=246
4eee-	.
4r	.
8r	.
8f	sf
8e-	.
8e-	.
=247	=247
8e-L	.
8f	sf
8e-	.
8e-	.
8e-L	.
8f	sf
8d	.
8d	.
=248	=248
(8dL	.
8e-)	.
4e-	.
8r	.
!LO:TX:t=dim.	!
8a-	.
8f	.
8f	.
=249	=249
(8fL	.
8g)	.
4g	.
8r	.
8B-	.
8B-	.
8B-	.
=250	=250
4B-	.
4B-	.
8r	.
8B-	p
8B-	.
8B-	.
=251	=251
[1B-	.
=252	=252
[1B-	.
=253	=253
!LO:TX:t=cresc.	!
(2B-	<
[2B-)	.
=254	=254
2.B-	.
4A-	f
=255	=255
4G	.
4r	.
4e-	p
4g	.
=256	=256
4b-	.
4ee-	.
4g	.
4b-	.
=257	=257
!LO:TX:t=cresc.	!
4ee-	<
4gg	.
4b-	.
4ee-	.
=258	=258
4gg	.
4bb-	.
4eee-	f
4fff	.
=259	=259
4ggg	.
4r	.
4e-	p
4f	.
=260	=260
4g	.
4r	.
4ee-	f
4d 4b- 4ff	.
=261	=261
4G 4e- 4b- 4gg	.
4r	.
4d 4b- 4bb-	.
4r	.
=262	=262
4G 4e-	.
4r	.
2r	.
=263	=263
*k[b-e-a-d-]	*
*A-:	*
*M3/8	*
!LO:TX:a:B:t=Adagio ma non troppo	!
4.r	.
=264	=264
!LO:TX:t=cantabile	!
(4ccc	.
16ddd-	.
16ccc)	.
=265	=265
(8cccL	.
8bb-	.
8ccc	.
=266	=266
8ddd-L	.
8.ccc)	.
16eee-	.
=267	=267
4bb-	.
(8bb-	.
=268	=268
8cccL	.
8aa-	.
8ccc	.
=269	=269
8ddd-L	<
8bb-	.
8ddd-	.
=270	=270
8.cccL)	>
(16aa-	.
16gg	.
16ff)	]
=271	=271
(8ffL	.
8ee-)	.
(16b-LL	.
16a-	.
=272	=272
8gL	.
8a-	.
8b-	.
=273	=273
4cc)	.
(16ee-	.
16dd-	.
=274	=274
8ccL	.
8dd-	.
8ee-	.
=275	=275
4ff)	<
(16gg-	sf
16ff)	.
=276	=276
(8ffL	.
8ee-)	.
(16ffLL	sf
16ee-)	.
=277	=277
(8ee-L	.
16dd-	.
16ff)	.
(16ff	.
16ee-)	.
=278	=278
(16ee-LL	.
16dd-	.
16cc	.
16b-	.
16ggLL	.
32ff	.
32g	.
=279	=279
16a-LL	.
32ee-	.
32dd-)	.
(8ccL	f
8b-)	[
=280	=280
(8a-L	p
8.f	.
16b-)	.
=281	=281
(8a-L	.
8g	.
16f	.
16e-)	.
=282	=282
(16e-LL	.
16a-)	.
(8.fL	.
32cc	.
32b-)	.
=283	=283
(8a-L	.
8g	.
16f	.
16e-)	.
=284	=284
!LO:TX:t=cresc.	!
(8e-L	<
8f	.
8g)	[
=285	=285
qqg	sf
4.b-	.
=286	=286
4a-	p
8r	.
=287	=287
(8ee-L	.
8cc-)	.
(16ee-	.
16cc-)	.
=288	=288
(8b-L	.
8a-)	.
(16a-LL	.
16cc-)	.
=289	=289
8ee-L	.
8aa-	.
(16ccc-LL	.
16aa-)	.
=290	=290
(qqgg	.
qqaa-	.
qqbb-	.
8aa-L	.
8gg)	.
[8bb-L	.
=291	=291
!LO:TX:t=cresc.	!
4bb-	<
8gg-	[
=292	=292
8ccc-L	.
(16cc-	f
16cc-)	.
(16b--LL	.
16b--)	.
=293	=293
4a--	.
[8g-	.
=294	=294
8g-L	.
[4f	sf
=295	=295
8fL	.
!LO:TX:t=dim.	!
[4f	.
=296	=296
8fL	p
(8g-	.
16a-	.
16g-)	.
=297	=297
4c-	.
(8cc-	.
=298	=298
[8b-L)	.
(16b-	.
16ff-)	.
(16dd-	.
16b-)	.
=299	=299
(8dd-L	.
8cc-)	.
(8c-L	.
=300	=300
[8B-L)	.
(16B-	.
16f-)	.
(16d-	.
16B-)	.
=301	=301
8c-L	.
8.cc-	.
16b--	.
=302	=302
[4b--	.
(16b--	.
16a-)	.
=303	=303
4a-	.
8a-	.
=304	=304
(8.a-L	.
16f-)	.
(16a-	.
16f-)	.
=305	=305
(8e-L	.
8d-)	.
(16d-LL	.
16f-)	.
=306	=306
(8a-L	.
8dd-)	.
(16ff-	.
16dd-)	.
=307	=307
(8cc-L	.
!LO:TX:t=cresc.	!
8b-)	<
(16ff-	.
16dd-)	.
=308	=308
(8cc-L	.
8b-)	.
(16dd-	.
16b-)	.
=309	=309
(8dd-L	.
8cc-)	.
(16ee-	.
16cc-)	.
=310	=310
(8b-L	.
8a-)	.
(qqb-	.
qqa-	.
qqg	.
qqa-	.
16cc-LL	.
16a-)	.
=311	=311
[8gL	p
4g 4b-	.
=312	=312
4.r	.
=313	=313
8r	.
8r	.
[8g [8b-	.
=314	=314
16gLL 16b-	.
(16cc	.
16dd-	.
16ee-)	.
[8ff	.
=315	=315
16ffLL	.
16ff	.
(16ff	.
16ee-)	.
16ee-LL	sf
16b-	.
=316	=316
4cc	.
16ff	sf
16cc	.
=317	=317
4dd-	.
16ff	sf
16cc	.
=318	=318
!LO:TX:t=dim.	!
4dd-	.
(8dd-	.
=319	=319
4cc)	.
8cc	.
=320	=320
8r	.
!LO:TX:t=espress.	!
8b-	.
8r	.
=321	=321
8r	.
8b-	.
8r	.
=322	=322
8r	.
8b-	.
8r	.
=323	=323
8r	.
[8b-	.
(32b-	.
32cc	.
32dd-	.
32b-	.
=324	=324
32gLLL	.
32a-	.
32b-	.
32g	.
32fLLL	.
32e-	.
32g	.
32e-	.
32b-LLL	.
32g	.
32dd-	.
32b-)	.
=325	=325
(16ffLL	.
16ee-)	.
8.ddL	>
16dd-	]
=326	=326
!LO:TX:t=cantabile	!
(4cc	p
24ee-	.
24dd-	.
24cc	.
=327	=327
8ccL)	.
8b-	.
8cc)	.
=328	=328
(8dd-L	.
8cc)	.
(64ee-LLLL	.
64gg	.
64aa-	.
64gg	.
64ff	.
64ee-	.
64dd-	.
64cc	.
=329	=329
4b-)	.
(8b-	.
=330	=330
!LO:TX:t=cresc.	!
8ccL	.
[8a-)	.
32a-LLL	.
(qqb-	.
qqa-	.
qqg	.
32a-	.
32b-	.
32cc)	.
=331	=331
(8dd-L	.
[8b-)	.
32b-LLL	.
(qqcc	.
qqb-)	.
qqa)	.
32b-	.
32cc	.
32dd-	.
=332	=332
[8ccJ	>
24ccLL	.
24b-	.
24a-	.
24gLL	.
24a-	.
24f	]
=333	=333
(8fL	.
8e-)	.
8r	.
=334	=334
8r	.
[4e-	p
=335	=335
24e-LL	.
(24A-	.
24B-	.
24cLL	.
24e-	.
24a-	.
24ccLL	.
24ee-	.
24dd-)	.
=336	=336
(8ccL	.
8dd-	.
8ee-)	.
=337	=337
[4ff)	<
(24ff	.
24gg-	sf
24ff)	.
=338	=338
(16ffLL	.
[8.ee-)	.
24ee-LL	.
(24ff	sf
24ee-)	.
=339	=339
(16ee-LL	.
[8.dd-)	.
(24dd-LL	.
24ff	.
24ee-)	.
=340	=340
!LO:TX:t=cresc.	!
(16ee-LL	<
16dd-	.
16cc	.
16b-T	.
qqa)	.
qqb-	.
24ggLL	.
24ff	.
24g	.
=341	=341
(32b-LLL	.
32a-	.
32ee-	.
32dd-)	[
(8ccL	f
24b-	.
24ff	.
24ee-)	[
=342	=342
(8a-L	p
8.f	.
16b-	.
=343	=343
8a-L	.
8g	.
16f	.
16e-)	.
=344	=344
(16e-LL	.
16a-)	.
[8fL	.
(24f	.
24cc	.
24b-)	.
=345	=345
8a-L	.
[8g	.
(24gLL	.
24f	.
24e-)	.
=346	=346
!LO:TX:t=cresc.	!
(8e-L	<
8f	.
8g)	.
=347	=347
qqg	sf
4.b-	.
=348	=348
8a-L	p
16r	.
8a-	.
16a-	.
=349	=349
(8.a-L	.
16dd-	.
16ee-	.
16ff)	.
=350	=350
(8ffL	.
8gg-	.
16ee-LL	.
16dd-)	.
=351	=351
8.ccL	.
(16cc	.
16dd-)	.
16ee-	.
=352	=352
(8ee-L	.
8.ff)	.
16ffLL	.
=353	=353
!LO:TX:t=cresc.	!
8.ffL	.
16b-	.
(16b-	.
16cc)	.
=354	=354
(8ccL	.
8dd-	.
16ddLL	.
16ee-)	.
=355	=355
(8ee-L	.
16a-)	.
(qqb-	.
qqa-	.
qqg	.
16a-	.
16cc	.
16b-)	.
=356	=356
(16a-LL	.
16cc	.
16ee-	.
16ff	.
16gg-)	.
16aa-	.
=357	=357
8ffL	.
8r	.
8aa-	.
=358	=358
(16aa-LL	.
16ccc	.
16eee-	.
16fff)	.
8ggg-L	.
=359	=359
16r	.
(16ccc	.
16ddd-	.
16eee-)	.
8r	.
=360	=360
16r	.
(16eee-	.
16ddd-	.
16eee-)	.
16fff	.
16r	.
=361	=361
16r	.
!LO:TX:t=cresc.	!
16fff	.
(16fff	.
16ddd-	.
16bb-)	.
16r	.
=362	=362
16r	.
(16fff	.
16eee-	.
16ddd-)	.
8r	.
=363	=363
16r	.
16eee-	.
(16eee-	.
16ccc	.
16aa-)	.
16r	.
=364	=364
16r	.
(16bb-	.
16aa-)	.
16r	.
8r	.
=365	=365
(4cc-	pp
16dd-	.
16cc-)	.
=366	=366
(8cc-L	.
8b-	.
8cc-	.
=367	=367
8dd-L	.
8.cc-	.
16ff-)	.
=368	=368
4b-	.
!LO:TX:t=espress.	!
(8b-	.
=369	=369
4cc-)	.
(8cc-	.
=370	=370
8.ee-L)	.
16r	.
(8dd-	.
=371	=371
8.ccL)	.
16r	.
(8dd-	f
=372	=372
8.ccL)	.
16r	.
(16dd-	ff
16cc)	.
=373	=373
(8ccL	.
8b)	.
8r	.
=374	=374
4.r	.
=375	=375
8r	.
8r	.
(24f-	p
24e-	.
24f-)	.
=376	=376
[4e-	<
(16e-	>
16d-)	.
=377	=377
!LO:TX:t=cantabile	!
(4c	p
16d-	.
16c)	.
=378	=378
(8cL	.
8B-	.
8c)	.
=379	=379
(8d-L	.
8.c	.
16e-)	.
=380	=380
4B-	.
8B-	.
=381	=381
!LO:TX:t=cresc.	!
(8cL	.
8A-	.
8c	.
=382	=382
qqd-)	.
qqc	.
qqB-	.
qqc	.
8d-L	.
8B-	.
8d-)	.
=383	=383
(16cLL	.
[8.cc)	.
48ccLLL	>
(48b-	.
48a-	.
48gLLL	.
48a-	.
48f)	.
=384	=384
(8fL	]
8e-)	.
(16B-LL	.
16A-)	.
=385	=385
(32GLLL	.
32g	.
32e-	.
32g	.
32A-LLL	.
32a-	.
32e-	.
32a-	.
32B-LLL	.
32b-	.
32e-	.
32b-)	.
=386	=386
(32cLLL	.
32cc	.
32e-	.
32cc	.
32cLLL	.
32e-	.
32a-	.
32cc	.
32a-LLL	.
32cc	.
32ee-	.
32dd-)	.
=387	=387
(32ccLLL	.
32a-	.
32cc	.
32e-	.
32dd-LLL	.
32a-	.
32dd-	.
32f	.
32ee-LLL	.
32cc	.
32ee-	.
32g-)	.
=388	=388
(32ffLLL	.
32A-	<
32d-	.
32A-	.
32fLLL	.
32a-	.
32dd-	.
32ff	.
32gg-LLL	sf
32ee-	.
32ff	.
32dd-)	.
=389	=389
(32ffLLL	.
32dd-	.
32f	.
32ff	.
32ee-LLL	.
32cc	.
32f	.
32ee-)	.
(32ffLLL	sf
32dd-	.
32ee-	.
32cc)	.
=390	=390
(32ee-LLL	.
32cc	.
32f	.
32ee-	.
32dd-LLL	.
32b-	.
32f	.
32dd-)	.
(32gg-LLL	.
32ff)	.
(32ff	.
32ee-)	.
=391	=391
!LO:TX:t=cresc.	!
(32ee-LLL	.
32dd-)	.
(32dd-	.
32cc)	.
(32ccLLL	.
32b-)	.
(32b-	.
32ff)	.
(32ffLLL	.
32ee-)	.
(32ee-	.
32g)	.
=392	=392
(32b-LLL	.
32a-)	.
(32ee-	.
32dd-)	.
(32ccLLL	f
32ee-)	.
(32aa-	.
32ccc)	.
(32aaLLL	[
32bb-)	.
(32eee-	.
32gg)	.
=393	=393
(8aa-L	p
8.ff	.
16bb-	.
=394	=394
8aa-L	.
8gg	.
16ff	.
16ee-)	.
=395	=395
(32ccLLL	.
32ee-)	.
(32ee-	.
32aa-)	.
(32dd-LLL	.
32ff)	.
(32ff	.
32bb-)	.
(32ffLLL	.
32bb-)	.
(32bb-	.
32ddd-)	.
=396	=396
(32ffLLL	.
32bb-)	.
(32bb-	.
32ddd-)	.
(32ee-LLL	.
32bb-)	.
(32bb-	.
32ddd-)	.
(32ee-LLL	.
32bb-)	.
(32bb-	.
32ddd-)	.
=397	=397
!LO:TX:t=cresc.	!
(32ddd-LLL	.
32ccc)	.
32bb-	.
32aa-	.
32ggLLL	.
32ff	.
32ee-	.
32dd-	.
32ccLLL	.
32b-	.
32a-	.
32g	.
=398	=398
(32fLLL	sf
32e-	>
32d	.
32e-	.
32gLLL	.
32b-	.
32dd-	.
32ee-	.
32ggLLL	.
32bb-	.
32ddd-)	.
32gg	]
=399	=399
8ddd-L	p
8r	.
8r	.
=400	=400
4.r	.
=401	=401
(8ee-L	.
8cc-)	.
(16ee-	.
16cc-)	.
=402	=402
(8b-L	.
8a-)	.
(16a-LL	.
16cc-)	.
=403	=403
!LO:TX:t=cresc.	!
(8ee-L	.
8aa-)	.
(16ccc-	.
16aa-)	.
=404	=404
(qqgg	.
qqaa-	.
!LO:TX:t=dim.	!
qqbb-	.
8aa-L	.
8gg)	p
8r	.
=405	=405
4.r	.
=406	=406
8r	.
8r	.
(8e-	.
=407	=407
!LO:TX:t=cresc.	!
8a-L	.
8.f	.
32cc	.
32b-	.
=408	=408
8a-L	.
8g	.
16f	.
16e-)	.
=409	=409
(qqe-	p
8a-L	.
4f)	.
=410	=410
!LO:TX:t=cresc.	!
(qqf	.
8dd-L	.
4g)	.
=411	=411
(qqg	.
8ee-L	.
8a-	.
16ee-	.
16dd-)	.
=412	=412
8r	.
qqe-	p
qqa-	.
8cc	.
8r	.
=413	=413
8r	.
qqee-	.
qqbb-	.
8ddd-	.
8r	.
=414	=414
(16ddd-LL	.
16ddd-)	.
8r	.
8r	.
=415	=415
(16ddd-LL	.
16ddd-)	.
8r	.
8r	.
=416	=416
4.ddd-	.
=417	=417
4ccc	.
8r	.
=418	=418
4.dd-	.
=419	=419
4cc	.
8r	.
=420	=420
4.d-	.
=421	=421
4.c	<
=422	=422
8cL	[
8c	.
8r	.
=423	=423
8c-L	.
8c-	.
8r	.
=424	=424
!LO:TX:t=cresc.	!
4.B-	.
=425	=425
4.e-	sf
=426	=426
8e-L	p
!LO:TX:t=espressivo morendo	!
8r	.
8e-	.
=427	=427
8e-L	.
8r	.
8e-	.
=428	=428
8r	.
8e-	.
8r	.
=429	=429
8r	.
8a-	.
8r	.
=430	=430
8r	.
8a-	.
8a-	.
=431	=431
8a-L	.
8r	.
8r	.
=432!|:	=432!|:
*k[b-e-a-]	*
*c:	*
*M3/4	*
!LO:TX:a:B:t=Presto	!
8ccL	f
!LO:TX:t=legieramente	!
8cc	.
8cc	.
=433	=433
4.c	.
8ee-L	.
8ee-	.
8ee-	.
=434	=434
4.e-	.
8ggL	.
8gg	.
8gg	.
=435	=435
4cc	.
4ccc	.
4cc	.
=436	=436
4b	.
8r	.
8ggL	p
8gg	.
8gg	.
=437	=437
8aa-L	.
8gg	.
8ff#	.
8gg	.
8dd	.
8dd	.
=438	=438
8ee-L	.
8b	.
8cc	.
8g	.
8a-	.
8a-	.
=439	=439
4g	.
4r	.
4r	.
=440	=440
4r	.
8r	.
=:|!|:	=:|!|:
8A-L	f
8A-	.
8A-	.
=441	=441
4.G	.
8A-	.
8A-	.
8A-	.
=442	=442
4.G	.
8A-	.
8A-	.
8A-	.
=443	=443
4.G	.
8A-	.
8A-	.
8A-	.
=444	=444
4.G	.
8d-	.
8d-	.
8d-	.
=445	=445
4.c	.
8d-	.
8d-	.
8d-	.
=446	=446
4.c	.
8d-	.
8d-	.
8d-	.
=447	=447
4.c	.
8d-	.
8d-	.
8d-	.
=448	=448
4.c	.
8a-	.
8a-	.
8a-	.
=449	=449
8fL	.
8d-	.
8f	.
8a-	.
8dd-	.
8ff	.
=450	=450
4aa-	.
4r	.
4ff	.
=451	=451
[2.bb-	ff
=452	=452
(8bb-L	.
8aa-)	.
8gg-	.
8ff	.
8ee-	.
8dd-	.
=453	=453
8ccL	.
8b-	.
8a-	.
8g-	.
8f	.
8e-	.
=454	=454
8d-L	.
8c	.
8e-	.
8c	.
8A-	.
8c	.
=455	=455
4d-	.
4r	.
4r	.
=456	=456
4r	.
8r	.
8a-	f
8a-	.
8a-	.
=457	=457
8fL	.
8d-	.
8f	.
8a-	.
8dd-	.
8ff	.
=458	=458
4aa-	.
4r	.
4ff	.
=459	=459
[2.ddd-	ff
=460	=460
(8ddd-L	.
8ccc)	.
8bb-	.
8aa-	.
8gg	.
8ff	.
=461	=461
8eeL	.
8dd-	.
8cc	.
8b-	.
8a-	.
8g	.
=462	=462
8fL	.
8e	.
8g	.
8e	.
8c	.
8e	.
=463	=463
4.f	.
8ff	.
8ff	.
8ff	.
=464	=464
4.f	.
8aa-	.
8aa-	.
8aa-	.
=465	=465
4ff	.
4fff	.
4ff	.
=466	=466
4r	.
4fff	p
4ff	.
=467	=467
4r	.
4fff	.
4ff	.
=468	=468
4r	.
4ddd	.
4dd	.
=469	=469
4.c	f
8ee-	.
8ee-	.
8ee-	.
=470	=470
4.c	.
8gg	.
8gg	.
8gg	.
=471	=471
4cc	.
4eee-	.
4cc	.
=472	=472
4r	.
4ccc	p
4cc	.
=473	=473
4r	.
4ccc	.
4cc	.
=474	=474
4r	.
4aa	.
4a	.
=475	=475
[2.gg	.
=476	=476
2gg	.
4ff	.
=477	=477
(8ffL	.
8ee-)	.
4r	.
4dd	.
=478	=478
(8ffL	.
8ee-)	.
4r	.
4dd	.
=479	=479
(8ffL	.
8ee-)	.
4r	.
4dd	.
=480	=480
4ee-	.
4r	.
4ff#	.
=481	=481
!LO:TX:t=cresc.	!
[2.gg	<
=482	=482
2gg	.
(8aaL	.
8bb)	.
=483	=483
[2.ccc	.
=484	=484
(2ccc	.
4bb-)	.
=485	=485
(8bb-L	.
8aa-)	.
4r	.
4gg	.
=486	=486
(8bb-L	[
8aa-)	.
4r	.
4gg	.
=487	=487
(8bb-L	.
8aa-)	.
4r	.
4gg	.
=488	=488
4aa-	.
4r	.
4bb	.
=489	=489
!LO:TX:t=dim.	!
4.ccc	.
8ccc	.
8ccc	.
8bb-	.
=490	=490
4.aa-	.
8bb-	.
8bb-	.
8aa-	.
=491	=491
4.gg	.
8aa-	.
8aa-	.
8gg	.
=492	=492
4.ff	.
8gg	.
8gg	.
8ff	.
=493	=493
4.ee-	p
8cc	.
8cc	.
8b-	.
=494	=494
!LO:TX:t=piu p	!
4.a-	.
8b-L	.
8b-	.
8a-	.
=495	=495
4.g	.
8a-	.
8a-	.
8g	.
=496	=496
4.f	.
8g	.
8g	.
8f	.
=497	=497
4.e-	.
8f	.
8e-	.
8f	.
=498	=498
4.g	.
8g	.
8g	.
8f	.
=499	=499
4.e-	.
8f	.
8e-	.
8f	.
=500	=500
4.g	.
8g	.
8g	.
8g	.
=501	=501
4g	pp
4r	.
4r	.
=502	=502
4a-	.
4r	.
4r	.
=503	=503
4a	.
4r	.
4r	.
=504	=504
4b	.
4r	.
4r	.
=505	=505
!LO:TX:t=sempre pp	!
4cc	.
4r	.
8bL	.
8b	.
=506	=506
4cc	.
4r	.
8bL	.
8b	.
=507	=507
4cc	.
4r	.
8bL	.
8b	.
=508	=508
4cc	.
4r	.
8bL	.
8b	.
=509	=509
4b	f
8r	.
=510:|!	=510:|!
*k[]	*
*C:	*
4G 4e 4cc	.
!LO:TX:a:B:t=Piu presto quasi prestissimo	!
4r	.
4r	.
=511	=511
2.r	.
=512	=512
2.r	.
=513	=513
2.r	.
=514	=514
2.r	.
=515	=515
2.r	.
=516	=516
2.r	.
=517	=517
2.r	.
=518	=518
2.r	.
=519	=519
2.r	.
=520	=520
2.r	.
=521	=521
2.r	.
=522	=522
2.r	.
=523	=523
2.r	.
=524	=524
2.r	.
=525	=525
2.r	.
=526	=526
2.r	.
=527	=527
2.r	.
=528	=528
2.r	.
=529	=529
4ccc	ff
4ddd	.
4eee	.
=530	=530
4ddd	.
4ccc	.
4bb	.
=531	=531
4aa	.
4gg	.
4ff	.
=532	=532
4ee	.
4ff	.
4gg	.
=533	=533
4aa	.
4bb	.
4ccc	.
=534	=534
4bb	.
4aa	.
4gg	.
=535	=535
4ff	.
4ee	.
4dd	.
=536	=536
4cc	.
4dd	.
4ee	.
=537	=537
4ff	.
4gg	.
4aa	.
=538	=538
4ff#	.
4gg	.
4aa	.
=539	=539
4bb	.
4ccc	.
4ddd	.
=540	=540
4aa	.
4eee	.
4eee	.
=541	=541
4ddd	.
4eee	.
4fff#	.
=542	=542
4ggg	.
4fff#	.
4eee	.
=543	=543
4ddd	.
4ccc	.
4bb	.
=544	=544
4aa	.
4eee	.
4eee	.
=545	=545
4ddd	.
4eee	.
4fff#	.
=546	=546
4ggg	.
4r	.
4r	.
=547	=547
!LO:TX:t=sempre ff	!
4gg	.
4aa	.
4bb-	.
=548	=548
4aa	.
4gg	.
4ff	.
=549	=549
4ee	.
4dd	.
4cc	.
=550	=550
4b-	.
4a	.
4g	.
=551	=551
4f	.
4e	.
4d	.
=552	=552
4c#	.
4B-	.
4A	.
=553	=553
2.G 2.g	.
=554	=554
2.cc#	.
=555	=555
2.ee	.
=556	=556
2.cc# 2.aa	.
=557	=557
2.cc# 2.aa	.
=558	=558
4cc# 4aa	.
4r	.
4r	.
=559	=559
!LO:TX:t=sempre f	!
4ff	.
4gg	.
4aa	.
=560	=560
4gg	.
4ff	.
4ee	.
=561	=561
4dd	.
4cc	.
4b	.
=562	=562
4a	.
4g	.
4f	.
=563	=563
4e	.
4d	.
4c	.
=564	=564
4B	.
4A	.
4G	.
=565	=565
2.ff	.
=566	=566
2.bb	.
=567	=567
2.ddd	.
=568	=568
2.b 2.gg	.
=569	=569
2.b 2.gg	.
=570	=570
4b 4gg	.
4r	.
4r	.
=571	=571
[2.cc	.
=572	=572
2.cc	.
=573	=573
2.b	.
=574	=574
[2.ee	.
=575	=575
[2.ee	.
=576	=576
2.ee	.
=577	=577
2.dd	.
=578	=578
[2.gg	.
=579	=579
2.gg	.
=580	=580
2.aa	.
=581	=581
2.bb	.
=582	=582
2.ccc	.
=583	=583
2.ccc	.
=584	=584
2.ccc	.
=585	=585
2.ddd	.
=586	=586
4eee	.
4ccc	.
4bb	.
=587	=587
4ccc	.
4ddd	.
4eee	.
=588	=588
4ddd	.
4ccc	.
4bb	.
=589	=589
4aa	.
4gg	.
4ff	.
=590	=590
4ee	.
4ff	.
4gg	.
=591	=591
4aa	.
4bb	.
4ccc	.
=592	=592
4bb	.
4aa	.
4gg	.
=593	=593
4ff	.
4ee	.
4dd	.
=594	=594
4cc	.
4dd	.
4ee	.
=595	=595
4ff	.
4gg	.
4aa	.
=596	=596
4gg	.
4ff	.
4ee	.
=597	=597
4dd	.
4cc	.
4b	.
=598	=598
[2.aa-	sf
=599	=599
[2.aa-	.
=600	=600
[2.aa-	.
=601	=601
[2.aa-	.
=602	=602
4.aa-	.
=!|:	=!|:
*k[b-e-a-]	*
*c:	*
!LO:TX:a:B:t=Tempo primo	!
8ccL	f
8cc	.
8cc	.
=603	=603
4.c	.
8ee-	.
8ee-	.
8ee-	.
=604	=604
4.e-	.
8gg	.
8gg	.
8gg	.
=605	=605
4cc	.
4ccc	.
4cc	.
=606	=606
4b	.
8r	.
8gg	p
8gg	.
8gg	.
=607	=607
8aa-L	.
8gg	.
8ff#	.
8gg	.
8dd	.
8dd	.
=608	=608
8ee-L	.
8b	.
8cc	.
8g	.
8a-	.
8a-	.
=609	=609
4g	.
4r	.
4r	.
=610	=610
4r	.
8r	.
=:|!	=:|!
8A-L	f
8A-	.
8A-	.
=611	=611
4.G	.
8A-	.
8A-	.
8A-	.
=612	=612
4.G	.
8A-	.
8A-	.
8A-	.
=613	=613
4.G	.
8A-	.
8A-	.
8A-	.
=614	=614
4.G	.
8d-	.
8d-	.
8d-	.
=615	=615
4.c	.
8d-	.
8d-	.
8d-	.
=616	=616
4.c	.
8d-	.
8d-	.
8d-	.
=617	=617
4.c	.
8d-	.
8d-	.
8d-	.
=618	=618
4.c	.
8a-	.
8a-	.
8a-	.
=619	=619
8fL	.
8d-	.
8f	.
8a-	.
8dd-	.
8ff	.
=620	=620
4aa-	.
4r	.
4ff	.
=621	=621
[2.bb-	ff
=622	=622
(8bb-L	.
8aa-)	.
8gg-	.
8ff	.
8ee-	.
8dd-	.
=623	=623
8ccL	.
8b-	.
8a-	.
8g-	.
8f	.
8e-	.
=624	=624
8d-L	.
8c	.
8e-	.
8c	.
8A-	.
8c	.
=625	=625
4d-	.
4r	.
4r	.
=626	=626
4r	.
8r	.
8a-	f
8a-	.
8a-	.
=627	=627
8fL	.
8d-	.
8f	.
8a-	.
8dd-	.
8ff	.
=628	=628
4aa-	.
4r	.
4ff	.
=629	=629
[2.ddd-	ff
=630	=630
(8ddd-L	.
8ccc)	.
8bb-	.
8aa-	.
8gg	.
8ff	.
=631	=631
8eeL	.
8dd-	.
8cc	.
8b-	.
8a-	.
8g	.
=632	=632
8fL	.
8e	.
8g	.
8e	.
8c	.
8e	.
=633	=633
4.f	.
8ff	.
8ff	.
8ff	.
=634	=634
4.f	.
8aa-	.
8aa-	.
8aa-	.
=635	=635
4ff	.
4fff	.
4ff	.
=636	=636
4r	.
4fff	p
4ff	.
=637	=637
4r	.
4fff	.
4ff	.
=638	=638
4r	.
4ddd	.
4dd	.
=639	=639
4.c	f
8ee-	.
8ee-	.
8ee-	.
=640	=640
4.c	.
8gg	.
8gg	.
8gg	.
=641	=641
4cc	.
4eee-	.
4cc	.
=642	=642
4r	.
4ccc	p
4cc	.
=643	=643
4r	.
4ccc	.
4cc	.
=644	=644
4r	.
4aa	.
4a	.
=645	=645
[2.gg	.
=646	=646
2gg	.
4ff	.
=647	=647
(8ffL	.
8ee-)	.
4r	.
4dd	.
=648	=648
(8ffL	.
8ee-)	.
4r	.
4dd	.
=649	=649
(8ffL	.
8ee-)	.
4r	.
4dd	.
=650	=650
4ee-	.
4r	.
4ff#	.
=651	=651
!LO:TX:t=cresc.	!
[2.gg	<
=652	=652
2gg	.
(8aaL	.
8bb)	.
=653	=653
[2.ccc	.
=654	=654
(2ccc	.
4bb-)	.
=655	=655
(8bb-L	.
8aa-)	.
4r	.
4gg	.
=656	=656
(8bb-L	[
8aa-)	.
4r	.
4gg	.
=657	=657
(8bb-L	.
8aa-)	.
4r	.
4gg	.
=658	=658
4aa-	.
4r	.
4bb	.
=659	=659
!LO:TX:t=dim.	!
4.ccc	.
8ccc	.
8ccc	.
8bb-	.
=660	=660
4.aa-	.
8bb-	.
8bb-	.
8aa-	.
=661	=661
4.gg	.
8aa-	.
8aa-	.
8gg	.
=662	=662
4.ff	.
8gg	.
8gg	.
8ff	.
=663	=663
4.ee-	p
8cc	.
8cc	.
8b-	.
=664	=664
!LO:TX:t=piu p	!
4.a-	.
8b-L	.
8b-	.
8a-	.
=665	=665
4.g	.
8a-	.
8a-	.
8g	.
=666	=666
4.f	.
8g	.
8g	.
8f	.
=667	=667
4.e-	.
8f	.
8e-	.
8f	.
=668	=668
4.g	.
8g	.
8g	.
8f	.
=669	=669
4.e-	.
8f	.
8e-	.
8f	.
=670	=670
4.g	.
8g	.
8g	.
8g	.
=671	=671
4g	pp
4r	.
4r	.
=672	=672
4a-	.
4r	.
4r	.
=673	=673
4a	.
4r	.
4r	.
=674	=674
4b	.
4r	.
4r	.
=675	=675
!LO:TX:t=sempre pp	!
4cc	.
4r	.
8bL	.
8b	.
=676	=676
4cc	.
4r	.
8bL	.
8b	.
=677	=677
4cc	.
4r	.
8bL	.
8b	.
=678	=678
4cc	.
4r	.
8bL	.
8b	.
=679||	=679||
*k[]	*
*C:	*
4G 4e 4cc	f
!LO:TX:t=Più presto quasi prestissimo	!
4r	.
4r	.
=680	=680
2.r	.
=681	=681
2.r	.
=682	=682
2.r	.
=683	=683
2.r	.
=684	=684
2.r	.
=685	=685
2.r	.
=686	=686
2.r	.
=687	=687
2.r	.
=688	=688
2.r	.
=689	=689
2.r	.
=690	=690
2.r	.
=691	=691
2.r	.
=692	=692
2.r	.
=693	=693
2.r	.
=694	=694
2.r	.
=695	=695
2.r	.
=696	=696
2.r	.
=697	=697
2.r	.
=698	=698
4ccc	ff
4ddd	.
4eee	.
=699	=699
4ddd	.
4ccc	.
4bb	.
=700	=700
4aa	.
4gg	.
4ff	.
=701	=701
4ee	.
4ff	.
4gg	.
=702	=702
4aa	.
4bb	.
4ccc	.
=703	=703
4bb	.
4aa	.
4gg	.
=704	=704
4ff	.
4ee	.
4dd	.
=705	=705
4cc	.
4dd	.
4ee	.
=706	=706
4ff	.
4gg	.
4aa	.
=707	=707
4ff#	.
4gg	.
4aa	.
=708	=708
4bb	.
4ccc	.
4ddd	.
=709	=709
4aa	.
4eee	.
4eee	.
=710	=710
4ddd	.
4eee	.
4fff#	.
=711	=711
4ggg	.
4fff#	.
4eee	.
=712	=712
4ddd	.
4ccc	.
4bb	.
=713	=713
4aa	.
4eee	.
4eee	.
=714	=714
4ddd	.
4eee	.
4fff#	.
=715	=715
4ggg	.
4r	.
4r	.
=716	=716
!LO:TX:t=sempre ff	!
4gg	.
4aa	.
4bb-	.
=717	=717
4aa	.
4gg	.
4ff	.
=718	=718
4ee	.
4dd	.
4cc	.
=719	=719
4b-	.
4a	.
4g	.
=720	=720
4f	.
4e	.
4d	.
=721	=721
4c#	.
4B-	.
4A	.
=722	=722
2.G 2.g	.
=723	=723
2.cc#	.
=724	=724
2.ee	.
=725	=725
2.cc# 2.aa	.
=726	=726
2.cc# 2.aa	.
=727	=727
4cc# 4aa	.
4r	.
4r	.
=728	=728
!LO:TX:t=sempre f	!
4ff	.
4gg	.
4aa	.
=729	=729
4gg	.
4ff	.
4ee	.
=730	=730
4dd	.
4cc	.
4b	.
=731	=731
4a	.
4g	.
4f	.
=732	=732
4e	.
4d	.
4c	.
=733	=733
4B	.
4A	.
4G	.
=734	=734
2.ff	.
=735	=735
2.bb	.
=736	=736
2.ddd	.
=737	=737
2.b 2.gg	.
=738	=738
2.b 2.gg	.
=739	=739
4b 4gg	.
4r	.
4r	.
=740	=740
[2.cc	.
=741	=741
2.cc	.
=742	=742
2.b	.
=743	=743
[2.ee	.
=744	=744
[2.ee	.
=745	=745
2.ee	.
=746	=746
2.dd	.
=747	=747
[2.gg	.
=748	=748
2.gg	.
=749	=749
2.aa	.
=750	=750
2.bb	.
=751	=751
2.ccc	.
=752	=752
2.ccc	.
=753	=753
2.ccc	.
=754	=754
2.ddd	.
=755	=755
4eee	.
4ccc	.
4bb	.
=756	=756
4ccc	.
4ddd	.
4eee	.
=757	=757
4ddd	.
4ccc	.
4bb	.
=758	=758
4aa	.
4gg	.
4ff	.
=759	=759
4ee	.
4ff	.
4gg	.
=760	=760
4aa	.
4bb	.
4ccc	.
=761	=761
4bb	.
4aa	.
4gg	.
=762	=762
4ff	.
4ee	.
4dd	.
=763	=763
4cc	.
4dd	.
4ee	.
=764	=764
4ff	.
4gg	.
4aa	.
=765	=765
4gg	.
4ff	.
4ee	.
=766	=766
4dd	.
4cc	.
4b	.
=767	=767
[2.aa-	sf
=768	=768
[2.aa-	.
=769	=769
[2.aa-	.
=770	=770
[4.aa-	.
=	=
4.aa-	.
=||	=||
*k[b-e-a-]	*
*c:	*
!LO:TX:a:B:t=Tempo primo	!
8ccL	.
8cc	.
8cc	.
=771	=771
4.c	.
8ee-	.
8ee-	.
8ee-	.
=772	=772
4.e-	.
8gg	.
8gg	.
8gg	.
=773	=773
4cc	.
4ccc	.
4cc	.
=774	=774
4b	.
8r	.
8gg	p
8gg	.
8gg	.
=775	=775
8aa-L	.
8gg	.
8ff#	.
8gg	.
8dd	.
8dd	.
=776	=776
8ee-L	.
8b	.
8cc	.
8g	.
8a-	.
8a-	.
=777	=777
4g	.
4r	.
4r	.
=778	=778
4r	.
8r	.
8cc	p
8cc	.
8cc	.
=779	=779
4.c	.
8ee-	.
8ee-	.
8ee-	.
=780	=780
4.e-	.
8gg	.
8gg	.
8gg	.
=781	=781
4cc	.
4ccc	.
4cc	.
=782	=782
4b	.
8r	.
8gg	p
8gg	.
8gg	.
=783	=783
8aa-L	.
8gg	.
8ff#	.
8gg	.
8dd	.
8dd	.
=784	=784
8ee-L	.
8b	.
8cc	.
8g	.
8a-	.
8a-	.
=785	=785
4g	.
4r	.
4r	.
=786	=786
4r	.
8r	.
!LO:TX:t=sempre p	!
8A-	.
8A-	.
8A-	.
=787	=787
4.G	.
8A-	.
8A-	.
8A-	.
=788	=788
4.G	.
8A-	.
8A-	.
8A-	.
=789	=789
4.G	.
8A-	.
8A-	.
8A-	.
=790	=790
4.G	.
8d-	.
8d-	.
8d-	.
=791	=791
4.c	.
8d-	.
8d-	.
8d-	.
=792	=792
4.c	.
8d-	.
8d-	.
8d-	.
=793	=793
4.c	.
8d-	.
8d-	.
8d-	.
=794	=794
4.c	.
8a-	.
8a-	.
8a-	.
=795	=795
8fL	.
8d-	.
8f	.
8a-	.
8dd-	.
8ff	.
=796	=796
4aa-	.
4r	.
4ff	.
=797	=797
[2.bb-	.
=798	=798
(8bb-L	.
8aa-)	.
8gg-	.
8ff	.
8ee-	.
8dd-	.
=799	=799
8ccL	.
8b-	.
8a-	.
8g-	.
8f	.
8e-	.
=800	=800
8d-L	.
8c	.
8e-	.
8c	.
8A-	.
8c	.
=801	=801
4d-	.
4r	.
4r	.
=802	=802
4r	.
8r	.
8a-	f
8a-	.
8a-	.
=803	=803
8fL	.
8d-	.
8f	.
8a-	.
8dd-	.
8ff	.
=804	=804
4aa-	.
4r	.
4ff	.
=805	=805
!LO:TX:t=sempre p	!
[2.ddd-	.
=806	=806
(8ddd-L	.
8ccc)	.
8bb-	.
8aa-	.
8gg	.
8ff	.
=807	=807
8eeL	.
8dd-	.
8cc	.
8b-	.
8a-	.
8g	.
=808	=808
8fL	.
8e	.
8g	.
8e	.
8c	.
8e	.
=809	=809
4.f	.
8ff	.
8ff	.
8ff	.
=810	=810
4.f	.
8aa-	.
8aa-	.
8aa-	.
=811	=811
4ff	.
4fff	.
4ff	.
=812	=812
4r	.
4fff	.
4ff	.
=813	=813
4r	.
4fff	.
4ff	.
=814	=814
4r	.
4ddd	.
4dd	.
=815	=815
4.c	.
8ee-	.
8ee-	.
8ee-	.
=816	=816
4.c	.
8gg	.
8gg	.
8gg	.
=817	=817
4cc	.
4eee-	.
4cc	.
=818	=818
4r	.
4ccc	.
4cc	.
=819	=819
4r	.
4ccc	.
4cc	.
=820	=820
4r	.
4aa	.
4a	.
=821	=821
[2.gg	.
=822	=822
2gg	.
4ff	.
=823	=823
(8ffL	.
8ee-)	.
4r	.
4dd	.
=824	=824
(8ffL	.
8ee-)	.
4r	.
4dd	.
=825	=825
(8ffL	.
8ee-)	.
4r	.
4dd	.
=826	=826
4ee-	.
4r	.
4ff#	.
=827	=827
[2.gg	.
=828	=828
2gg	.
(8aaL	.
8bb)	.
=829	=829
!LO:TX:t=piu p	!
[2.ccc	.
=830	=830
(2ccc	.
4bb-)	.
=831	=831
(8bb-L	.
8aa-)	.
4r	.
4gg	.
=832	=832
(8bb-L	.
8aa-)	.
4r	.
4gg	.
=833	=833
(8bb-L	.
8aa-)	.
4r	.
4gg	.
=834	=834
4aa-	.
4r	.
4bb	.
=835	=835
!LO:TX:t=sempre piu p	!
4.ccc	.
8ccc	.
8ccc	.
8bb-	.
=836	=836
4.aa-	.
8bb-	.
8bb-	.
8aa-	.
=837	=837
4.gg	.
8aa-	.
8aa-	.
8gg	.
=838	=838
4.ff	.
8gg	.
8gg	.
8ff	.
=839	=839
4.ee-	.
8cc	.
8cc	.
8b-	.
=840	=840
4.a-	.
8b-L	.
8b-	.
8a-	.
=841	=841
4.g	.
8a-	.
8a-	.
8g	.
=842	=842
4.f	.
8g	.
8g	.
8f	.
=843	=843
4.e-	.
8f	.
8e-	.
8f	.
=844	=844
4.g	.
8g	.
8g	.
8f	.
=845	=845
4.e-	.
8f	.
8e-	.
8f	.
=846	=846
4.g	.
8g	.
8g	.
8g	.
=847	=847
4g	ppp
4r	.
4r	.
=848	=848
4a-	.
4r	.
4r	.
=849	=849
4a	.
4r	.
4r	.
=850	=850
4b	.
4r	.
4r	.
=851	=851
4cc	.
4r	.
8bL	.
8b	.
=852	=852
4cc	.
4r	.
8bL	.
8b	.
=853	=853
4cc	.
4r	.
8bL	.
8b	.
=854	=854
4cc	.
4r	.
8bL	.
8b	.
=855	=855
!LO:TX:t=poco cresc.	!
[2.cc	.
=856	=856
[2.cc	.
=857	=857
!LO:TX:t=dim.	!
[2.cc	.
=858	=858
[2.cc	.
=859	=859
4cc	.
4r	.
4r	.
=860	=860
!LO:TX:t=sempre pp	!
4a-	.
4r	.
4r	.
=861	=861
4b-	.
4r	.
4r	.
=862	=862
4cc	.
4r	.
4r	.
=863	=863
4dd-	.
8r	.
8cc	.
8cc	.
8cc	.
=864	=864
4dd-	.
8r	.
8cc	.
8cc	.
8cc	.
=865	=865
4dd-	.
8r	.
8cc	.
8cc	.
8cc	.
=866	=866
4dd-	.
8r	.
8cc	.
8cc	.
8cc	.
=867	=867
!LO:TX:t=poco cresc.	!
[2.dd-	.
=868	=868
2.dd-	.
=869	=869
!LO:TX:t=dim.	!
[2.dd	.
=870	=870
2.dd	.
=871	=871
2.dd	pp
=872	=872
[2.ee-	.
=873	=873
!LO:TX:t=poco cresc.	!
[2.ee-	.
=874	=874
2.ee-	.
=875	=875
2.dd	pp
=876	=876
[2.ee-	.
=877	=877
!LO:TX:t=poco cresc.	!
[2.ee-	.
=878	=878
2.ee-	.
=879	=879
4dd	pp
4r	.
4r	.
=880	=880
2.r	.
=881	=881
8b-L	.
8b-	.
8cc	.
8cc	.
8b-	.
8b-	.
=882	=882
8ccL	.
8cc	.
8dd	.
8dd	.
8cc	.
8cc	.
=883	=883
4dd	.
4r	.
4r	.
=884	=884
2.r	.
=885	=885
8ddL	.
8dd	.
8ee-	.
8ee-	.
8dd	.
8dd	.
=886	=886
8ee-L	.
8ee-	.
8ff	.
8ff	.
8ee-	.
8ee-	.
=887	=887
8ffL	.
8ff	.
8gg	.
8gg	.
8ff	.
8ff	.
=888	=888
8ggL	.
8gg	.
8aa-	.
8aa-	.
8gg	.
8gg	.
=889	=889
8aa-L	.
8aa-	.
8bb-	.
8bb-	.
8aa-	.
8aa-	.
=890	=890
8aa-L	.
8aa-	.
8bb-	.
8bb-	.
8aa-	.
8aa-	.
=891	=891
4aa-	.
4r	.
4r	.
=892	=892
2.r	.
=893	=893
8a-L	.
8a-	.
8b-	.
8b-	.
8a-	.
8a-	.
=894	=894
8a-L	.
8a-	.
8b-	.
8b-	.
8a-	.
8a-	.
=895	=895
4a-	.
4r	.
4r	.
=896	=896
2.r	.
=897	=897
8A-	.
8A-	.
8B-	.
8B-	.
8A-	.
8A-	.
=898	=898
8A-L	.
8A-	.
8B-	.
8B-	.
8A-	.
8A-	.
=899	=899
2.A-	.
=900!|:	=900!|:
*k[b-e-a-]	*
*E-:	*
*M2/4	*
!LO:TX:a:B:t=Allegretto con Variazioni	!
(8.b-L	p
16a-	.
=901	=901
8gL)	.
8r	.
(8.ee-L	.
16dd	.
=902	=902
8ccL)	.
8r	.
(8.ccL	.
16b-	.
=903	=903
8a-L)	.
8r	.
(8.a-L	.
16g	.
=904	=904
8fL)	.
8r	.
!LO:TX:t=cresc.	!
(8.a-L	<
16g	.
=905	=905
8fL)	.
8r	.
(8.b-L	.
16a-	.
=906	=906
8gL)	.
8r	[
(8.b-L	f
16b)	.
=907	=907
8ccL	.
8dd	.
8ee-L	.
8ff	.
=908	=908
8ggL	.
8r	.
=:|!|:	=:|!|:
(8.ggL	pp
16ff	.
=909	=909
4ee	.
8.ffL	.
16ee-	.
=910	=910
4dd	.
8.ee-L	.
16dd	.
=911	=911
4cc#)	.
[4dd)	.
=912	=912
4dd	.
!LO:TX:t=cresc.	!
(8.ddL	<
16cc	.
=913	=913
8b-L)	.
8r	.
(8.ddL	.
16ee-	.
=914	=914
8ffL)	.
8r	.
(8.ffL	.
16ee-	.
=915	=915
8ddJ)	.
8r	.
(8.ffL	.
16gg)	.
=916	=916
8aa-L	[
8r	.
(8.bb-L	f
16aa-	.
=917	=917
8ggL)	.
8r	.
(8.eee-L	sf
16ddd	.
=918	=918
8cccL)	.
8r	.
(8.cccL	sf
16bb-)	.
=919	=919
8aa-L	.
8bb-	.
8ccc	.
8ddd	.
=920	=920
8eee-L	.
8r	.
=:|!|:	=:|!|:
4r	.
=921	=921
4r	.
!LO:TX:t=sempre f e staccato	!
8eee-L	.
8bb-	.
=922	=922
8cccL	.
8aa-	.
8ee-	.
8cc	.
=923	=923
8cL	.
8r	.
8aa-	.
8gg	.
=924	=924
8ffL	.
8ee-	.
8dd	.
8cc	.
=925	=925
4b-	.
8dddL	.
8ccc	.
=926	=926
8bb-L	.
8aa-	.
8ggL	.
8bb	.
=927	=927
8cccL	.
8ccc	.
8eee-	.
8ff#	.
=928	=928
8ggL	.
8r	.
=:|!|:	=:|!|:
4r	.
=929	=929
8cccL	.
8bb-	.
8aa	.
8ff	.
=930	=930
8bb-L	.
8aa-	.
8gg	.
8g	.
=931	=931
8ggL	.
8bb-	.
8aa	.
8dd	sf
=932	=932
8ddL	.
8r	.
4r	.
=933	=933
4r	.
8ddL	.
8cc	.
=934	=934
8b-L	.
8cc	.
8dd	.
8ee-	.
=935	=935
8ffL	.
8r	.
8ffL	.
8ee-	.
=936	=936
8ddL	.
8ee-	.
8ff	.
8ff	.
=937	=937
8ggL	.
8gg	.
8aa-	.
8bb-	.
=938	=938
8cccL	.
8ccc	.
8ccc	.
8bb-	.
=939	=939
8aa-L	.
8gg	.
8ff	.
8ddd	.
=940	=940
8eee-L	.
8r	.
=:|!|:	=:|!|:
4r	.
=941	=941
!LO:TX:t=sempre dolce e p	!
2e- 2b-	.
=942	=942
2cc	.
=943	=943
2cc	.
=944	=944
2b-	.
=945	=945
2b-	.
=946	=946
2b-	.
=947	=947
2cc	.
=948	=948
8bL	.
8r	.
=:|!|:	=:|!|:
(12ddL	p
12cc	.
12dd	.
=949	=949
4ee-	.
12ccL	.
12b-	.
12cc	.
=950	=950
4dd)	.
[4gg)	.
=951	=951
(8ggL	.
8cc#	.
[4dd)	.
=952	=952
2dd	.
=953	=953
2f 2dd	.
=954	=954
2f 2dd	.
=955	=955
2dd	.
=956	=956
2dd	.
=957	=957
(4ee-	.
4b-)	.
=958	=958
2cc	.
=959	=959
2dd	.
=960	=960
8ee-L	.
8r	.
=:|!|:	=:|!|:
8r	.
8bb-	f
=961	=961
8r	.
8eee-	.
8r	.
8eee-	.
=962	=962
8r	.
8ccc	.
8r	.
8ccc	.
=963	=963
8r	.
8aa-	.
8r	.
8aa-	.
=964	=964
8r	.
8ff	.
8r	.
8ff	.
=965	=965
8r	.
8bb-	.
8r	.
8bb-	.
=966	=966
8r	.
8eee-	.
8r	.
8eee-	.
=967	=967
8r	.
8eee-	.
8r	.
8fff	.
=968	=968
8r	.
8ggg	.
=:|!|:	=:|!|:
4r	.
=969	=969
8r	.
8gg	.
8r	.
8ccc	.
=970	=970
8r	.
8dd 8ff	.
8r	.
8gg	.
=971	=971
8r	.
8ccc#	.
16r	.
16ddd	.
16dd	.
16ddd	.
=972	=972
8ddL	.
8r	.
4r	.
=973	=973
4r	.
16b-LL	p
16cc	.
16dd	.
16ee-	.
=974	=974
16ee-LL	.
16ff	.
16gg	.
16ff	.
4r	.
=975	=975
4r	.
16ddLL	.
16ee-	.
16ff	.
16gg	.
=976	=976
16ggLL	.
16aa-	.
16bb-	.
16aa-	.
8r	.
8bb-	f
=977	=977
8r	.
8eee-	.
8r	.
8eee-	.
=978	=978
8r	.
8ccc	.
8r	.
8ccc	.
=979	=979
8r	.
8ccc	.
8r	.
8ddd	.
=980	=980
8r	.
8eee-	.
=:|!|:	=:|!|:
!LO:TX:t=sempre p e dolce	!
(4b-	.
=981	=981
4g	.
4ee-	.
=982	=982
4dd	.
4cc	.
=983	=983
4b-	.
4a-)	.
=984	=984
4g	.
4f	.
=985	=985
(4f	.
4b-	.
=986	=986
4a-	.
[4g	.
=987	=987
4g	.
4f#	.
=988	=988
4g)	.
=:|!|:	=:|!|:
(4gg	.
=989	=989
!LO:TX:t=sempre p e dolce	!
4ee	.
4ff	.
=990	=990
4f 4dd	.
4e- 4ee-	.
=991	=991
4cc#)	.
[4dd)	.
=992	=992
4dd	.
(4dd	.
=993	=993
4dd	.
4ee-	.
=994	=994
4ff)	.
[4f	.
=995	=995
!LO:TX:t=cresc.	!
(4f	<
4g	.
=996	=996
4a-	>
4b-)	.
=997	=997
!LO:TX:t=sotto voce	!
(4g	]
4ee-	.
=998	=998
4dd	.
[4cc	.
=999	=999
4cc	.
4b-	.
=1000	=1000
4g)	.
=:|!|:	=:|!|:
!LO:TX:t=sempre f	!
[4b-	.
=1001	=1001
16b-LL	.
(16e-	.
16g	.
16b-)	.
[4ee-	.
=1002	=1002
16ee-LL	.
(16cc	.
16ee-	.
16aa-)	.
[4ccc	sf
=1003	=1003
16cccLL	.
(16A-	.
16c	.
16f)	.
[4a-	.
=1004	=1004
16a-LL	.
(16f	.
16a-	.
16dd)	.
[4ff	.
=1005	=1005
16ffLL	.
(16B-	.
16d	.
16f)	.
[4b-	.
=1006	=1006
16b-LL	.
(16g	.
16b-)	.
16ee-	.
[4gg	.
=1007	=1007
16ggLL	.
(16cc	.
16ee-	.
16gg	.
16cccLL	.
16ddd	.
16eee-)	.
16fff	.
=1008	=1008
8gggL	.
8G	.
=:|!|:	=:|!|:
[4gg	.
=1009	=1009
16ggLL	.
16g	.
16b-	.
16ee	.
[4ff	.
=1010	=1010
16ffLL	.
16f	.
16b-	.
16dd	.
8ee-L	.
[8gg	.
=1011	=1011
16ggLL	.
16G	.
16B-	.
16G	.
16dLL	.
16f#	.
16a	.
16dd	.
=1012	=1012
16ff#LL	.
16aa	.
16ccc#	.
16ddd	.
[4dd	.
=1013	=1013
16ddLL	.
16G	.
16f	.
16b-	.
[4dd	.
=1014	=1014
16ddLL	.
16d	.
16f	.
16b-	.
[4ff	.
=1015	=1015
16ffLL	.
16d	.
16f	.
16b-	.
[4ff	.
=1016	=1016
16ffLL	.
16f	.
16b-	.
16dd	.
8aa-L	.
[8bb-	sf
=1017	=1017
16bb-LL	.
16G	.
16B-	.
16e-	.
[4g	sf
=1018	=1018
16gLL	.
16c	.
16f	.
16a-	.
[4cc	sf
=1019	=1019
16ccLL	.
16b-	.
16dd	.
16ff	.
16aa-LL	.
16bb-	.
16ccc	.
16ddd	.
=1020	=1020
8eee-L	.
8e-	.
=:|!|:	=:|!|:
!LO:TX:a:B:t=un poco più vivace	!
4r	.
=1021	=1021
2r	.
=1022	=1022
4r	.
(8b-L	pp
8cc	.
=1023	=1023
8b-L	.
8cc	.
8b-	.
8ee-	.
=1024	=1024
8ddL	.
8cc	.
8cc	.
8b-)	.
=1025	=1025
(8b-L	.
8a-	.
8a-	.
8g)	.
=1026	=1026
(8gL	.
8f	.
8f	.
8g)	.
=1027	=1027
(8fL	.
8g	.
8g	.
8a-)	.
=1028	=1028
(8gL	.
8a-	.
8b-	.
8b)	.
=1029	=1029
(8ccL	.
8dd	.
8ee-	.
8ff)	.
=1030	=1030
4gg	.
=:|!|:	=:|!|:
!LO:TX:t=sempre pp	!
(8ggL	.
8ff	.
=1031	=1031
8ffL	.
8ee	.
8ee	.
8ff)	.
=1032	=1032
(8ee-L	.
8dd-	.
8dd-	.
8ee-)	.
=1033	=1033
(8ccL	.
8ee-)	.
[4dd-	.
=1034	=1034
4dd-	.
(8dd-L	.
8cc)	.
=1035	=1035
(8ccL	.
8b-	.
8dd-	.
8ee-)	.
=1036	=1036
(8ee-L	.
8ff)	.
(8ff	.
8ee-)	.
=1037	=1037
(8ee-L	.
8dd-	.
8ff	.
8gg-	.
=1038	=1038
8aa-L	.
8b-)	.
(8b-	.
8cc	.
=1039	=1039
8b-L	.
8cc	.
8b-	.
8ee-	.
=1040	=1040
8ddL	.
8cc)	.
(8cc	.
8b-	.
=1041	=1041
8a-L	.
8b-	.
8cc	.
8dd	.
=1042	=1042
4ee-)	.
=1043:|!	=1043:|!
12ee-L	.
12b-	<
12b-	.
12b-L	.
12b-	.
12b-	.
=1044	=1044
12b-L	.
12b-	.
12b-	.
12b-L	.
12b-	.
12b-	.
=1045	=1045
12b-L	.
12b-	.
12b-	.
12b-L	.
12b-	.
12b-	.
=1046	=1046
12b-L	.
12b-	.
12b-	.
12b-L	.
12b-	.
12b-	.
=1047	=1047
12b-L	>
12b-	.
12b-	]
(8bb-L	.
8ccc	<
=1048	=1048
8bb-L	.
8ccc	.
8bb-	.
8eee-	.
=1049	=1049
8dddL	.
8ccc	.
8ddd	.
8ccc	.
=1050	=1050
8bb-L	.
8aa-	.
8bb-	.
8aa-	.
=1051	=1051
8ggL	>
8ff)	.
[4gg	]
=1052	=1052
!LO:TX:t=cresc.	!
(12ggL	.
12ff	<
12ee-	.
12ddL	.
12cc	.
12b-)	.
=1053	=1053
4b-	.
(16b-TLL	.
16a	.
16b-	.
16cc	.
=1054	=1054
4dd)	.
(16ee-TLL	.
16dd	.
16ee-	.
16ff	.
=1055	=1055
16ggtLL	.
16ff	.
16gg	.
16aa-	.
8bb-L	f
8ddd-	.
=1056	=1056
8cccL	.
8bb-	.
8aa-	.
8ff	.
=1057	=1057
8eeL	>
8gg	.
8ff	p
8ccc)	.
=1058	=1058
(4ee-	.
!LO:TX:t=cresc.	!
8ddL	<
8bb-)	.
=1059	=1059
(8bb-L	.
8aa-	[
8ggL	f
8ddd-	.
=1060	=1060
8cccL	.
8bb-	.
8aa-L	.
8ff)	.
=1061	=1061
(12eeL	>
12gg	.
12cc	]
12ffL	p
12aa-	.
12ccc)	.
=1062	=1062
(12ee-L	.
12gg	.
12bb-)	.
qqaat	.
qqbb-T	.
4bb-T	.
=1063	=1063
4ee-	.
4r	.
=1064	=1064
2r	.
=1065	=1065
(2ee-	.
=1066	=1066
12ddL	.
12aa-	.
12gg	.
12ffL	.
12ee-	.
12dd)	.
=1067	=1067
4ee-	.
4r	.
=1068	=1068
2r	.
=1069	=1069
2ee-	.
=1070	=1070
(12ddL	.
12aa-	.
12gg	.
8ffL)	.
(16bb-	pp
16aa-	.
=1071	=1071
8ggL)	.
(16bb-	.
16aa-	.
8ggL)	.
(16eee-	.
16ddd	.
=1072	=1072
8cccL)	.
(16ccc	.
16bb-	.
8aa-L)	.
(16ccc	.
16bb-	.
=1073	=1073
8aa-L)	.
(16aa-	.
16gg	.
8ffL)	.
(16aa-	.
16gg	.
=1074	=1074
8ffL)	.
(16ff	.
16ee-	.
8ddL)	.
(16ff	.
16ee-	.
=1075	=1075
8ddL)	.
(16ff	.
16ee-	.
8ddL)	.
(16bb-	.
16aa-	.
=1076	=1076
8ggL)	.
(16bb-	.
16aa-	.
8ggL)	.
(16eee-	.
16ddd	.
=1077	=1077
8cccL)	.
(16aa-	.
16gg	.
8ffL)	.
(16bb-	.
16dd	.
=1078	=1078
8ee-L)	.
8r	.
!LO:TX:t=cresc. poco a poco	!
!LO:TX:a:B:t=accel.	!
12b-L	.
12b-	.
12g	.
=1079	=1079
12b-L	.
12b-	.
12g	.
12ee-L	.
12ee-	.
12b-	.
=1080	=1080
12ccL	.
12cc	.
12a-	.
12ccL	.
12cc	.
12a-	.
=1081	=1081
12ccL	.
12cc	.
12a-	.
12ccL	.
12cc	.
12a-	.
=1082	=1082
12b-L	.
12b-	.
12a-	.
12b-L	.
12b-	.
12a-	.
=1083	=1083
12ddL	.
12dd	.
12f	.
12ddL	.
12dd	.
12f	.
=1084	=1084
12ee-L	.
12ee-	.
12g	.
12ggL	.
12gg	.
12ee-	.
=1085	=1085
12aa-L	.
12aa-	.
12ff	.
12dddL	.
12ddd	.
12ff	.
=1086	=1086
!LO:TX:a:B:t=Allegro	!
8eee-L	f
8r	.
16bb-LL	.
16ccc	.
16bb-	.
16aa-	.
=1087	=1087
16ggLL	.
16bb-	.
16ccc	.
16ddd	.
16eee-LL	sf
16fff	.
16eee-	.
16ddd	.
=1088	=1088
16dddLL	.
16ccc	.
16bb	.
16ccc	.
16cccLL	sf
16ddd	.
16ccc	.
16bb-	.
=1089	=1089
16bb-LL	.
16aa-	.
16gg	.
16aa-	.
16aa-LL	sf
16bb-	.
16aa-	.
16gg	.
=1090	=1090
16ggLL	.
16ff	.
16ee	.
16ff	.
16aa-LL	sf
16bb-	.
16aa-	.
16gg	.
=1091	=1091
16ggLL	.
16ff	.
16ee	.
16ff	.
16bb-LL	sf
16ccc	.
16bb-	.
16aa-	.
=1092	=1092
16ggLL	ff
16aa-	.
16bb-	.
16bb	.
16cccLL	.
16bb-	.
16aa-	.
16gg	.
=1093	=1093
16ffLL	.
16ee-	.
16dd	.
16cc	.
16b-LL	.
16a-	.
16g	.
16f	.
=1094	=1094
8e-L	.
8r	.
4r	.
=1095	=1095
8b-L	p
8r	.
4r	.
=1096	=1096
8gL	.
8r	.
==	==
*-	*-
